X:1
T:Longwater
C:
<end>
<start>
XiM
D:"989", 
<end>
<start>
XiM
R:Schottische
Z:Dave Holland <dave@biff.org.uk>
M:2/4
L:1/8
K:Dm
"Dm"F>E D/E/D/E/|F/E/F/G/ AG/A/|"B\b"B>A GF | "C"{GA}GF "Am"E2|
"Dm"F>E D/E/D/E/|F/E/F/G/ "(F)"AG/A/|"B\b"BA {GA}GF | "C"E4:|
"B\b"DF "C"EF/G/|"F"A>G A/G/F/E/|"B\b"D/E/F/A/ "C"GF/G/|"Dm"A/F/c/A/ "Am"G2|
"B\b"DF "C"EF/G/|"F"A>G A/G/F/E/|"B\b"D/E/F/A/ "C"GF/E/|"Dm"FF "Am"E2:|
<end>
<start>
